X:338
T: A B C D WENN ICH DICH SEH
N: B0400
O: Europa, Mitteleuropa, Deutschland
R: Liebes - Lied, Liebes - Lust
M: 3/4
L: 1/8
K: F
 | F2E2F2 | G4z2 |
G2F2G2 | A4z2 |
A2A2d2 | c3BB2 |
G2G2c2 | B3AA2 |
F2E2F2 | e3dd2 |
dEE2E2 | F4z2

@@@ Tune index: 2141
